X:5837
T:Scotch Hornpipe
O:england
R:Hornpipe
M:4/4
L:1/8
K:A
e|\
agfe f2ga | e2dc f4 | e2 dc dcBA | G2B2 B3e |\
agfe f2ga | e2dc f4 |
e2dc dcBA | E2A2 A3 :|\
|:G|\
A2c2 a2e2 | fedc dcBA |
c2de dcBA | G2B2 B3G |\
A2c2 a2e2 | fedc dcBA | cdec dcBA | E2A2 A3:|


